round/svg/file_copy.svg

<svg xmlns="http://www.w3.org/2000/svg" width="24" height="24"><path fill="none" d="M0 0h24v24H0V0z"/><path d="M15 1H4c-1.1 0-2 .9-2 2v13c0 .55.45 1 1 1s1-.45 1-1V4c0-.55.45-1 1-1h10c.55 0 1-.45 1-1s-.45-1-1-1zm.59 4.59l4.83 4.83c.37.37.58.88.58 1.41V21c0 1.1-.9 2-2 2H7.99C6.89 23 6 22.1 6 21l.01-14c0-1.1.89-2 1.99-2h6.17c.53 0 1.04.21 1.42.59zM15 12h4.5L14 6.5V11c0 .55.45 1 1 1z"/></svg>

<?xml version="1.0" encoding="utf-8"?>
<!-- Generator: Adobe Illustrator 19.1.0, SVG Export Plug-In . SVG Version: 6.00 Build 0)  -->
<svg version="1.1" xmlns="http://www.w3.org/2000/svg" xmlns:xlink="http://www.w3.org/1999/xlink" x="0px" y="0px" width="24px"
	 height="24px" viewBox="0 0 24 24" enable-background="new 0 0 24 24" xml:space="preserve">
<g id="Bounding_Boxes">
	<g id="ui_x5F_spec_x5F_header_copy_3" display="none">
	</g>
	<path fill="none" d="M0,0h24v24H0V0z"/>
</g>
<g id="Rounded_1_">
	<g id="ui_x5F_spec_x5F_header_copy_6" display="none">
	</g>
	<path d="M15,1H4C2.9,1,2,1.9,2,3v13c0,0.55,0.45,1,1,1h0c0.55,0,1-0.45,1-1V4c0-0.55,0.45-1,1-1h10c0.55,0,1-0.45,1-1v0
		C16,1.45,15.55,1,15,1z M15.59,5.59l4.83,4.83C20.79,10.79,21,11.3,21,11.83V21c0,1.1-0.9,2-2,2H7.99C6.89,23,6,22.1,6,21L6.01,7
		C6.01,5.9,6.9,5,8,5h6.17C14.7,5,15.21,5.21,15.59,5.59z M15,12h4.5L14,6.5V11C14,11.55,14.45,12,15,12z"/>
</g>
</svg>
